src/assets/icons/createWorkerUser.svg

<svg width="86" height="79" viewBox="0 0 86 79" fill="none" xmlns="http://www.w3.org/2000/svg">
<g clip-path="url(#clip0_876_5108)">
<path d="M36.9168 0.0181122C32.9943 0.282791 30.2312 1.07683 28.0356 2.55738C26.7527 3.42586 25.5439 4.92295 25.0916 6.21326C24.8696 6.82534 23.7923 11.2091 23.1509 14.0709C22.8631 15.3695 22.4355 17.1561 22.3286 17.5035C22.2052 17.9336 22.4026 17.8757 20.0178 18.1156C17.6741 18.3554 15.6101 18.4133 9.24519 18.4133C2.43624 18.4133 2.39513 18.4216 1.53167 18.8848C0.980707 19.1908 0.454412 19.836 0.191264 20.5308C0.0103499 21.0188 -0.0143202 21.209 0.0103499 21.8128C0.03502 22.4497 0.0679135 22.5903 0.388625 23.2272C1.06294 24.6085 2.18132 25.3777 5.20752 26.577C6.39168 27.0402 7.10711 27.2884 8.71067 27.7929C11.5148 28.6697 15.7499 29.6291 19.5244 30.2412C20.3878 30.3735 21.202 30.5141 21.3418 30.5307L21.5967 30.572L21.646 32.4992C21.7283 35.7912 21.9996 37.3296 22.9124 39.8358C24.4502 44.0541 27.5422 47.6604 31.2427 49.538C32.8216 50.3403 33.7673 50.6711 35.5271 51.0599C36.4727 51.2667 36.6866 51.2832 38.5204 51.2832C40.3459 51.2832 40.568 51.2667 41.489 51.0599C44.3589 50.4395 46.5628 49.3891 48.8078 47.5777C49.5479 46.9822 50.8225 45.667 51.3406 44.964C51.5215 44.7158 51.7846 44.3767 51.9162 44.2278C52.0478 44.0707 52.2287 43.7729 52.3192 43.5661C52.4096 43.3511 52.607 43.0368 52.7468 42.8548C52.8948 42.6729 53.0428 42.433 53.0757 42.3172C53.1086 42.2014 53.3142 41.763 53.5362 41.3495C53.7583 40.9276 54.0132 40.3321 54.1119 40.0261C54.2105 39.7118 54.3668 39.2982 54.449 39.0997C54.7533 38.4214 55.1891 36.3619 55.3371 34.8979C55.4029 34.2776 55.5181 31.3413 55.5016 30.6878C55.5016 30.6299 55.7894 30.5472 56.2253 30.4893C59.087 30.0923 63.2069 29.2735 65.5752 28.6118C66.1673 28.4546 66.7183 28.3057 66.8087 28.2809C67.7133 28.0576 69.9501 27.3297 71.8661 26.6432C73.0914 26.2048 74.5551 25.51 75.3857 24.9807C76.4054 24.319 77.0962 23.3016 77.3017 22.1354C77.5649 20.6548 76.7014 19.1412 75.2788 18.6118C74.8923 18.4712 74.3742 18.4547 66.9732 18.4051C62.6313 18.372 58.6923 18.3058 58.2153 18.2644C57.7384 18.2148 56.7762 18.1156 56.0772 18.0494C55.3783 17.975 54.7944 17.9171 54.7944 17.9171C54.7862 17.9171 54.7533 17.7764 54.7204 17.6027C54.671 17.3381 53.9967 14.3439 53.6513 12.913C53.4458 12.0362 53.1415 10.6963 52.9935 10.0594C52.6728 8.62019 52.204 6.75917 52.0642 6.33733C50.9212 3.00402 47.1713 0.745979 41.7686 0.133907C40.9627 0.0429268 37.7062 -0.0397873 36.9168 0.0181122ZM40.2884 4.68309C43.9642 4.9395 46.6286 6.07265 47.4838 7.75171C47.6976 8.16528 47.9197 9.1082 47.8292 9.19918C47.7963 9.23226 47.3523 9.18264 46.8506 9.08338C45.1073 8.74426 43.9971 8.57056 43.6353 8.57056C43.1008 8.57056 42.5745 8.78562 42.1962 9.15782C41.7192 9.61274 41.5054 10.0759 41.4561 10.7294C41.3656 11.9949 42.2784 13.0453 43.6682 13.2852C43.956 13.3348 44.6221 13.4258 45.1402 13.4919C45.6582 13.5581 46.5875 13.6905 47.196 13.7897C47.8045 13.8807 48.4706 13.9882 48.668 14.013L49.038 14.0709L49.3505 15.353C49.663 16.635 49.7124 17.0072 49.6055 17.0072C49.5643 17.0072 48.964 16.8914 48.265 16.7591C47.5661 16.6267 46.5875 16.453 46.0859 16.3869C45.5925 16.3124 45.1237 16.238 45.0579 16.2215C44.8688 16.1636 41.9413 15.841 40.864 15.7665C39.6552 15.6756 37.6322 15.6756 36.4234 15.7665C35.3132 15.8492 32.2459 16.1718 32.065 16.2215C31.9992 16.2463 31.5141 16.3207 30.996 16.3869C30.4779 16.453 29.8858 16.5523 29.6802 16.6019C29.4747 16.6433 28.8744 16.7508 28.3398 16.8335L27.3695 16.9824L27.4188 16.726C27.5339 16.1884 28.0273 14.1785 28.0602 14.1454C28.1178 14.0875 28.973 13.9469 31.2838 13.6077C34.2689 13.1859 34.5238 13.1115 35.0994 12.5242C36.2343 11.3828 35.8724 9.3646 34.4333 8.73599C33.8659 8.49612 33.2985 8.53748 30.7493 9.01721C29.6474 9.23226 29.2691 9.25708 29.2691 9.13301C29.2691 8.88487 29.5158 8.00812 29.6802 7.67727C30.1243 6.75917 31.4976 5.80797 33.0929 5.3117C35.009 4.71617 37.55 4.50112 40.2884 4.68309ZM43.331 20.5142C44.4823 20.6383 45.5267 20.7541 45.6418 20.7789C45.7651 20.8037 46.3326 20.8947 46.9164 20.9774C48.191 21.1677 50.0742 21.515 50.51 21.6391C50.6827 21.6887 50.9376 21.8045 51.0857 21.8872C51.2584 21.9865 51.6531 22.0692 52.2534 22.1354C52.755 22.185 53.4211 22.2595 53.7336 22.3008C54.5888 22.4249 57.3765 22.7061 58.5443 22.7971C60.1643 22.9212 65.1887 23.1279 66.6607 23.1279C67.4008 23.1279 68.0011 23.1527 68.0011 23.1941C68.0011 23.2272 67.8284 23.3016 67.6146 23.3513C67.3926 23.4092 66.965 23.5332 66.6443 23.6242C65.8713 23.8558 64.6131 24.1949 64.0539 24.3273C61.3073 24.9807 60.0573 25.2454 58.3798 25.5266C55.8881 25.9402 55.2385 26.0394 51.431 26.5109C47.7963 26.9658 41.9413 27.3463 38.5615 27.3463C36.0287 27.3463 30.6917 27.065 28.3234 26.8086C25.988 26.5605 23.5538 26.271 22.7726 26.1469C22.345 26.0808 21.5885 25.965 21.0868 25.8988C20.5934 25.8244 20.1247 25.7499 20.0507 25.7334C19.9849 25.7086 19.4997 25.6176 18.9816 25.5266C16.9176 25.1627 14.8042 24.6995 12.1234 24.0212C11.7615 23.9302 11.1859 23.7896 10.8487 23.7152C10.5116 23.6325 10.0511 23.5001 9.83727 23.4257C9.62346 23.3513 9.37676 23.2934 9.2863 23.2934C9.20407 23.2934 9.10539 23.252 9.08072 23.2106C9.04783 23.161 9.39321 23.1279 10.0429 23.1197C10.602 23.1197 11.2023 23.1031 11.3833 23.0866C11.5642 23.07 12.5099 23.0369 13.4802 23.0039C16.3995 22.9212 20.7086 22.5986 22.9371 22.3091C23.2742 22.2595 24.0143 22.185 24.5818 22.1271C25.1492 22.0775 25.7495 21.9865 25.9222 21.9203C26.0866 21.8542 26.3827 21.7466 26.58 21.6722C27.0652 21.4902 31.5963 20.7375 33.0107 20.6135C33.3314 20.5804 34.0715 20.506 34.6554 20.4398C36.2918 20.2495 36.3905 20.2495 38.8904 20.2744C40.6502 20.2992 41.7521 20.3571 43.331 20.5142ZM27.83 31.3495C29.2691 31.5232 29.672 31.5563 31.9417 31.6969C37.3197 32.0195 39.647 32.0278 44.6879 31.7217C47.2371 31.5729 47.8457 31.5232 49.5808 31.3165C50.7732 31.1758 50.6498 31.0435 50.6498 32.4331C50.6498 35.1378 50.1153 37.6191 49.1203 39.6042C47.599 42.6232 44.9099 45.0715 42.0153 46.0723C41.0203 46.4114 40.0992 46.5603 38.6766 46.5934C37.2211 46.6348 36.2918 46.5024 34.9843 46.0641C32.2295 45.1542 29.4418 42.5736 27.9204 39.5298C26.9172 37.5116 26.5471 35.8077 26.4978 32.9872L26.4649 31.2337H26.654C26.761 31.2337 27.2872 31.2834 27.83 31.3495Z" fill="black" fill-opacity="0.7"/>
<path d="M73.7574 34.6745C72.6391 34.8813 71.7016 35.7498 71.422 36.8333C71.3151 37.2552 71.2904 37.9251 71.2904 40.9028V44.4594L67.5323 44.4842L63.766 44.509L63.3549 44.7323C62.7546 45.0467 62.2694 45.5595 61.9816 46.1715C61.7513 46.6678 61.7349 46.7671 61.7678 47.4288C61.7924 48.0491 61.8418 48.2228 62.0803 48.6695C62.401 49.2733 62.8368 49.6951 63.4782 50.0011L63.9305 50.2162L67.6064 50.241L71.2822 50.2658L71.3069 53.9217C71.3315 57.5197 71.3315 57.5858 71.5207 58.049C71.6276 58.3054 71.8743 58.7107 72.0799 58.9341C73.2887 60.2823 75.509 60.1086 76.5287 58.5784C76.9974 57.8919 76.9974 57.8753 77.0221 53.9217L77.055 50.2658L80.4019 50.241L83.7488 50.2162L84.2258 49.9929C85.4675 49.4056 86.076 48.3965 85.9938 47.0731C85.9445 46.337 85.706 45.8076 85.1879 45.2948C84.9823 45.088 84.6369 44.8233 84.4067 44.7158L83.9955 44.509L80.5253 44.4842L77.0468 44.4594V40.9607C77.0468 37.3792 77.0057 36.8416 76.7178 36.2378C76.2327 35.237 74.81 34.4843 73.7574 34.6745Z" fill="black" fill-opacity="0.7"/>
<path d="M26.3909 50.1334C26.0538 50.1913 25.6426 50.2823 25.4863 50.3319C25.3301 50.3815 24.7956 50.5139 24.294 50.6379C23.2578 50.8861 21.1033 51.4982 20.5523 51.7049C20.3467 51.7794 19.9438 51.9283 19.6478 52.0358C19.3517 52.135 18.8336 52.3418 18.4965 52.4907C18.1593 52.6313 17.781 52.7885 17.6577 52.8381C17.5343 52.8795 17.0245 53.1359 16.5229 53.4088C13.2089 55.1706 10.5856 57.5196 8.53799 60.5552C7.64986 61.8703 7.26337 62.5651 6.55616 64.1531C6.01341 65.3607 5.41311 67.4368 5.10062 69.1986C4.79636 70.9107 4.64011 75.4682 4.8457 76.56C5.01839 77.4616 5.61047 78.3135 6.40814 78.7849L6.77819 79H38.1914H69.6047L69.9583 78.8098C70.5093 78.512 71.0273 77.9826 71.3151 77.4285L71.5783 76.9322L71.603 74.4508C71.6359 71.8867 71.5536 70.3814 71.3234 69.1324C70.4846 64.5584 68.511 60.7123 65.3697 57.5279C64.7611 56.9075 64.0046 56.2045 63.6839 55.9481C61.0524 53.8803 57.7959 52.2426 54.0625 51.1259C53.6596 51.0019 53.1004 50.8365 52.829 50.7455C52.3274 50.5883 51.686 50.4229 50.7321 50.1996C49.9508 50.0176 49.1943 50.0838 48.7749 50.365C48.4871 50.547 48.3637 50.7455 47.9855 51.5147C46.9 53.781 44.655 55.7413 42.1058 56.6677C38.9727 57.8091 35.157 57.3625 32.4762 55.5428C30.9467 54.5089 29.3924 52.6975 28.9813 51.4733C28.5701 50.2492 27.83 49.8605 26.3909 50.1334ZM25.7742 55.4849C26.6212 56.7835 28.2247 58.3881 29.598 59.3062C31.5799 60.6379 33.4548 61.3657 36.0945 61.8455C36.8757 61.9861 39.1947 62.0274 40.165 61.9282C43.1419 61.6056 46.0694 60.4311 48.1746 58.7355C48.964 58.0986 50.51 56.4526 51.0363 55.6834C51.1926 55.4518 51.3324 55.2533 51.3406 55.245C51.431 55.1458 54.8602 56.2707 56.0773 56.8C58.3633 57.7926 60.8304 59.4385 62.1214 60.8529C64.4569 63.4087 65.5506 65.3359 66.3976 68.4128C66.7183 69.5708 66.8581 70.7205 66.9074 72.5733L66.9568 74.4095H38.2408H9.53301V73.0116C9.53301 71.3987 9.68926 70.0174 10.0346 68.5369C10.3636 67.1391 10.5034 66.6841 10.783 66.1548C10.9063 65.9066 11.0132 65.6585 11.0132 65.5923C11.0132 65.5262 11.1612 65.2367 11.3339 64.9472C11.5066 64.6494 11.7615 64.178 11.9013 63.8885C12.0411 63.599 12.2138 63.3095 12.2961 63.2433C12.3701 63.1771 12.5428 62.9621 12.6661 62.7636C13.1184 62.044 14.319 60.7288 15.1249 60.0754C15.4621 59.7942 15.7581 59.5461 15.7828 59.5212C15.8074 59.4964 16.0624 59.2897 16.3584 59.0498C17.4521 58.1896 19.4093 57.1226 20.9717 56.5353C21.8187 56.221 24.1048 55.5014 24.516 55.427C24.6887 55.3939 24.96 55.3195 25.1327 55.2533C25.5521 55.1044 25.5192 55.0961 25.7742 55.4849Z" fill="black" fill-opacity="0.7"/>
</g>
<defs>
<clipPath id="clip0_876_5108">
<rect width="86" height="79" fill="white"/>
</clipPath>
</defs>
</svg>

<svg xmlns="http://www.w3.org/2000/svg" width="86" height="79" fill="none"><g fill="#000" fill-opacity=".7" clip-path="url(#a)"><path d="M36.917.018c-3.923.265-6.686 1.059-8.881 2.54-1.283.868-2.492 2.365-2.944 3.655-.222.612-1.3 4.996-1.941 7.858-.288 1.299-.715 3.085-.822 3.432-.124.43.074.373-2.311.613-2.344.24-4.408.297-10.773.297-6.809 0-6.85.009-7.713.472-.551.306-1.078.951-1.34 1.646-.182.488-.206.678-.182 1.282.025.637.058.777.379 1.414.674 1.381 1.792 2.15 4.819 3.35 1.184.463 1.9.711 3.503 1.216 2.804.877 7.039 1.836 10.813 2.448.864.133 1.678.273 1.818.29l.255.041.049 1.927c.082 3.292.354 4.83 1.266 7.337 1.538 4.218 4.63 7.824 8.33 9.702 1.58.802 2.525 1.133 4.285 1.522.946.207 1.16.223 2.993.223 1.826 0 2.048-.016 2.969-.223 2.87-.62 5.074-1.67 7.319-3.482.74-.596 2.014-1.911 2.533-2.614.18-.248.444-.587.575-.736.132-.157.313-.455.403-.662.09-.215.288-.53.428-.711.148-.182.296-.422.329-.538.033-.116.238-.554.46-.968a10.32 10.32 0 0 0 .576-1.323c.099-.314.255-.728.337-.926.304-.679.74-2.738.888-4.202.066-.62.181-3.557.165-4.21 0-.058.287-.14.723-.199 2.862-.397 6.982-1.216 9.35-1.877a233.53 233.53 0 0 0 1.234-.331c.904-.223 3.141-.951 5.057-1.638 1.225-.438 2.69-1.133 3.52-1.662 1.02-.662 1.71-1.68 1.916-2.846.263-1.48-.6-2.994-2.023-3.523-.387-.14-.905-.157-8.306-.207-4.342-.033-8.28-.1-8.758-.14-.477-.05-1.439-.15-2.138-.216-.699-.074-1.283-.132-1.283-.132-.008 0-.04-.14-.074-.314a253.37 253.37 0 0 0-1.069-4.69c-.205-.877-.51-2.217-.658-2.854-.32-1.439-.789-3.3-.929-3.722C50.921 3.004 47.171.746 41.77.134c-.806-.091-4.063-.174-4.852-.116Zm3.371 4.665c3.676.256 6.34 1.39 7.196 3.069.214.413.436 1.356.345 1.447-.033.033-.477-.016-.978-.116-1.744-.339-2.854-.512-3.216-.512a2.07 2.07 0 0 0-1.439.587c-.477.455-.69.918-.74 1.571-.09 1.266.822 2.316 2.212 2.556.288.05.954.14 1.472.207.518.066 1.447.198 2.056.298.608.09 1.275.198 1.472.223l.37.058.313 1.282c.312 1.282.361 1.654.255 1.654-.042 0-.642-.116-1.341-.248a50.452 50.452 0 0 0-2.18-.372 30.625 30.625 0 0 1-1.027-.166c-.19-.057-3.117-.38-4.194-.454a36.19 36.19 0 0 0-4.44 0c-1.11.082-4.178.405-4.359.454-.066.025-.55.1-1.069.166-.518.066-1.11.165-1.316.215-.205.041-.806.149-1.34.232l-.97.148.049-.256c.115-.538.608-2.547.641-2.58.058-.059.913-.2 3.224-.538 2.985-.422 3.24-.497 3.815-1.084 1.135-1.141.773-3.16-.666-3.788-.567-.24-1.135-.199-3.684.281-1.102.215-1.48.24-1.48.116 0-.248.247-1.125.411-1.456.444-.918 1.818-1.869 3.413-2.365 1.916-.596 4.457-.81 7.195-.629Zm3.043 15.831c1.151.124 2.196.24 2.31.265.124.025.692.116 1.275.198 1.275.19 3.158.538 3.594.662.173.05.428.166.576.248.172.1.567.182 1.167.248.502.05 1.168.124 1.48.166.856.124 3.644.405 4.811.496 1.62.124 6.645.33 8.117.33.74 0 1.34.026 1.34.067 0 .033-.173.108-.386.157-.222.058-.65.182-.97.273-.774.232-2.032.57-2.591.703-2.747.654-3.997.918-5.674 1.2-2.492.413-3.142.512-6.949.984-3.635.455-9.49.835-12.87.835-2.532 0-7.87-.281-10.238-.537-2.335-.248-4.77-.538-5.55-.662a90.442 90.442 0 0 0-1.686-.248 37.296 37.296 0 0 1-1.036-.166c-.066-.024-.551-.115-1.07-.206-2.063-.364-4.177-.828-6.858-1.506a55.196 55.196 0 0 0-1.274-.306 14.121 14.121 0 0 1-1.012-.29c-.214-.074-.46-.132-.55-.132-.083 0-.182-.041-.206-.082-.033-.05.312-.083.962-.091.559 0 1.16-.017 1.34-.033.181-.017 1.127-.05 2.097-.083 2.92-.083 7.229-.405 9.457-.695.337-.05 1.077-.124 1.645-.182.567-.05 1.168-.14 1.34-.207.165-.066.46-.173.658-.248.485-.182 5.016-.934 6.43-1.059.321-.033 1.062-.107 1.645-.173 1.637-.19 1.736-.19 4.235-.166 1.76.025 2.862.083 4.441.24ZM27.83 31.35c1.44.174 1.842.207 4.112.348 5.378.323 7.705.33 12.746.025 2.55-.15 3.158-.199 4.893-.405 1.192-.141 1.069-.273 1.069 1.116 0 2.705-.535 5.186-1.53 7.171-1.521 3.02-4.21 5.468-7.105 6.468-.995.34-1.916.488-3.338.521-1.456.042-2.385-.09-3.693-.529-2.755-.91-5.542-3.49-7.064-6.534-1.003-2.018-1.373-3.722-1.422-6.543l-.033-1.753h.189c.107 0 .633.05 1.176.115ZM73.757 34.675c-1.118.206-2.055 1.075-2.335 2.158-.107.422-.132 1.092-.132 4.07v3.556l-3.758.025-3.766.025-.411.223c-.6.315-1.086.828-1.373 1.44-.23.496-.247.595-.214 1.257.024.62.074.794.312 1.24.321.604.757 1.026 1.398 1.332l.453.215 3.675.025 3.676.025.025 3.656c.025 3.598.025 3.664.214 4.127.107.256.353.662.559.885 1.209 1.348 3.429 1.175 4.449-.356.468-.686.468-.703.493-4.656l.033-3.656 3.347-.025 3.347-.025.477-.223c1.242-.587 1.85-1.596 1.768-2.92-.05-.736-.288-1.265-.806-1.778-.206-.207-.551-.472-.781-.58l-.411-.206-3.47-.025-3.48-.025v-3.498c0-3.582-.04-4.12-.328-4.723-.485-1.001-1.908-1.754-2.96-1.563Z"/><path d="M26.39 50.133a9.14 9.14 0 0 0-.904.199c-.156.05-.69.182-1.192.306-1.036.248-3.19.86-3.742 1.067l-.904.33c-.296.1-.814.307-1.151.456-.338.14-.716.297-.84.347-.123.041-.633.298-1.134.57-3.314 1.763-5.937 4.112-7.985 7.147-.888 1.315-1.275 2.01-1.982 3.598-.543 1.208-1.143 3.284-1.455 5.046-.305 1.712-.46 6.27-.255 7.361a3.39 3.39 0 0 0 1.562 2.225l.37.215h62.827l.353-.19a3.47 3.47 0 0 0 1.357-1.382l.263-.496.025-2.481c.033-2.564-.05-4.07-.28-5.319-.838-4.574-2.812-8.42-5.953-11.604-.609-.62-1.365-1.323-1.686-1.58-2.632-2.068-5.888-3.705-9.621-4.822-.403-.124-.963-.29-1.234-.38-.502-.158-1.143-.323-2.097-.546-.781-.182-1.538-.116-1.957.165-.288.182-.411.38-.79 1.15-1.085 2.266-3.33 4.226-5.88 5.153-3.132 1.141-6.948.694-9.629-1.125-1.53-1.034-3.084-2.846-3.495-4.07-.41-1.224-1.151-1.612-2.59-1.34Zm-.616 5.352c.847 1.298 2.45 2.903 3.824 3.821 1.982 1.332 3.857 2.06 6.496 2.54.782.14 3.1.181 4.071.082 2.977-.322 5.904-1.497 8.01-3.192.789-.637 2.335-2.283 2.861-3.053.157-.231.296-.43.305-.438.09-.1 3.52 1.026 4.736 1.555 2.286.993 4.753 2.639 6.044 4.053 2.336 2.556 3.43 4.483 4.277 7.56.32 1.158.46 2.308.51 4.16l.049 1.837H9.533v-1.398c0-1.613.156-2.995.502-4.475.329-1.398.468-1.853.748-2.382.123-.248.23-.496.23-.563 0-.066.148-.355.32-.645.174-.298.428-.769.568-1.059.14-.289.313-.578.395-.645.074-.066.247-.28.37-.48.452-.719 1.653-2.034 2.459-2.688.337-.28.633-.529.658-.554.024-.025.28-.231.575-.471 1.094-.86 3.051-1.927 4.614-2.515.847-.314 3.133-1.034 3.544-1.108a4.3 4.3 0 0 0 .617-.174c.42-.149.386-.157.641.232Z"/></g><defs><clipPath id="a"><path fill="#fff" d="M0 0h86v79H0z"/></clipPath></defs></svg>
